X:289
M:C
L:1/8
K:D
f/g/|a<d f>d a<dg<b|a<d a>f e2 ef/g/|a>df>d a<d g>b|a<d a>f d2 df/g/|
a<d f>d a<dg<b|a<d a>f e2 ef/g/|a>fg>e f>de>c|d>BA>F D2D||

